X:040
T:Portsmouth
M:4/4
L:1/8
K:G
D2 | G2 GA BAGF | E4 e4 | d2 B2 cBAG | A6 D2 | 
G2 GA BAGF | E4 e4 | d2 B2 cBAB | G6 :|| 
d2 | g3 a bagf | g2 d2 B2 d2 | g2 B2 cBAG | A6 D2 | 
G2 GA BAGF | E4 e4 | d2 B2 cBAB | G6 :|| 

